ui/StatusQ/src/assets/img/icons/qr.svg

<svg fill="none" height="24" viewBox="0 0 24 24" width="24" xmlns="http://www.w3.org/2000/svg"><g fill="#000"><path clip-rule="evenodd" d="m4 2c-1.10457 0-2 .89543-2 2v5c0 1.1046.89543 2 2 2h5c1.1046 0 2-.8954 2-2v-5c0-1.10457-.8954-2-2-2zm5 1.5h-5c-.27614 0-.5.22386-.5.5v5c0 .27614.22386.5.5.5h5c.27614 0 .5-.22386.5-.5v-5c0-.27614-.22386-.5-.5-.5z" fill-rule="evenodd"/><path d="m6.5 16c-.82843 0-1.5.6716-1.5 1.5s.67157 1.5 1.5 1.5 1.5-.6716 1.5-1.5-.67157-1.5-1.5-1.5z"/><path clip-rule="evenodd" d="m6.5 13c-2.48528 0-4.5 2.0147-4.5 4.5s2.01472 4.5 4.5 4.5 4.5-2.0147 4.5-4.5-2.01472-4.5-4.5-4.5zm-3 4.5c0 1.6569 1.34315 3 3 3s3-1.3431 3-3-1.34315-3-3-3-3 1.3431-3 3z" fill-rule="evenodd"/><path d="m14 13c-.5523 0-1 .4477-1 1v1.5c0 .5523.4477 1 1 1h1.5c.5523 0 1-.4477 1-1v-1.5c0-.5523-.4477-1-1-1z"/><path d="m18.5 14c0-.5523.4477-1 1-1h1.5c.5523 0 1 .4477 1 1v1.5c0 .5523-.4477 1-1 1h-1.5c-.5523 0-1-.4477-1-1z"/><path d="m19.5 18.5c-.5523 0-1 .4477-1 1v1.5c0 .5523.4477 1 1 1h1.5c.5523 0 1-.4477 1-1v-1.5c0-.5523-.4477-1-1-1z"/><path d="m13 19.5c0-.5523.4477-1 1-1h1.5c.5523 0 1 .4477 1 1v1.5c0 .5523-.4477 1-1 1h-1.5c-.5523 0-1-.4477-1-1z"/><path d="m16 6c0-.55228.4477-1 1-1h1c.5523 0 1 .44772 1 1v1c0 .55228-.4477 1-1 1h-1c-.5523 0-1-.44772-1-1z"/><path clip-rule="evenodd" d="m13 4c0-1.10457.8954-2 2-2h5c1.1046 0 2 .89543 2 2v5c0 1.1046-.8954 2-2 2h-5c-1.1046 0-2-.8954-2-2zm2-.5h5c.2761 0 .5.22386.5.5v5c0 .27614-.2239.5-.5.5h-5c-.2761 0-.5-.22386-.5-.5v-5c0-.27614.2239-.5.5-.5z" fill-rule="evenodd"/></g></svg>

<svg width="24" height="24" viewBox="0 0 24 24" fill="none" xmlns="http://www.w3.org/2000/svg">
<path fill-rule="evenodd" clip-rule="evenodd" d="M4 2C2.89543 2 2 2.89543 2 4V9C2 10.1046 2.89543 11 4 11H9C10.1046 11 11 10.1046 11 9V4C11 2.89543 10.1046 2 9 2H4ZM9 3.5H4C3.72386 3.5 3.5 3.72386 3.5 4V9C3.5 9.27614 3.72386 9.5 4 9.5H9C9.27614 9.5 9.5 9.27614 9.5 9V4C9.5 3.72386 9.27614 3.5 9 3.5Z" fill="black"/>
<path d="M6.5 16C5.67157 16 5 16.6716 5 17.5C5 18.3284 5.67157 19 6.5 19C7.32843 19 8 18.3284 8 17.5C8 16.6716 7.32843 16 6.5 16Z" fill="black"/>
<path fill-rule="evenodd" clip-rule="evenodd" d="M6.5 13C4.01472 13 2 15.0147 2 17.5C2 19.9853 4.01472 22 6.5 22C8.98528 22 11 19.9853 11 17.5C11 15.0147 8.98528 13 6.5 13ZM3.5 17.5C3.5 19.1569 4.84315 20.5 6.5 20.5C8.15685 20.5 9.5 19.1569 9.5 17.5C9.5 15.8431 8.15685 14.5 6.5 14.5C4.84315 14.5 3.5 15.8431 3.5 17.5Z" fill="black"/>
<path d="M14 13C13.4477 13 13 13.4477 13 14V15.5C13 16.0523 13.4477 16.5 14 16.5H15.5C16.0523 16.5 16.5 16.0523 16.5 15.5V14C16.5 13.4477 16.0523 13 15.5 13H14Z" fill="black"/>
<path d="M18.5 14C18.5 13.4477 18.9477 13 19.5 13H21C21.5523 13 22 13.4477 22 14V15.5C22 16.0523 21.5523 16.5 21 16.5H19.5C18.9477 16.5 18.5 16.0523 18.5 15.5V14Z" fill="black"/>
<path d="M19.5 18.5C18.9477 18.5 18.5 18.9477 18.5 19.5V21C18.5 21.5523 18.9477 22 19.5 22H21C21.5523 22 22 21.5523 22 21V19.5C22 18.9477 21.5523 18.5 21 18.5H19.5Z" fill="black"/>
<path d="M13 19.5C13 18.9477 13.4477 18.5 14 18.5H15.5C16.0523 18.5 16.5 18.9477 16.5 19.5V21C16.5 21.5523 16.0523 22 15.5 22H14C13.4477 22 13 21.5523 13 21V19.5Z" fill="black"/>
<path d="M16 6C16 5.44772 16.4477 5 17 5H18C18.5523 5 19 5.44772 19 6V7C19 7.55228 18.5523 8 18 8H17C16.4477 8 16 7.55228 16 7V6Z" fill="black"/>
<path fill-rule="evenodd" clip-rule="evenodd" d="M13 4C13 2.89543 13.8954 2 15 2H20C21.1046 2 22 2.89543 22 4V9C22 10.1046 21.1046 11 20 11H15C13.8954 11 13 10.1046 13 9V4ZM15 3.5H20C20.2761 3.5 20.5 3.72386 20.5 4V9C20.5 9.27614 20.2761 9.5 20 9.5H15C14.7239 9.5 14.5 9.27614 14.5 9V4C14.5 3.72386 14.7239 3.5 15 3.5Z" fill="black"/>
</svg>
